X: 1
T: Spring Chicken
C: Veronica Hughes
R: jig
Z: 2011 John Chambers <jc:trillian.mit.edu>
S: printed MS of unknown origin, from Mike Briggs
M: 6/8
L: 1/8
K: F
|: "F"F2F "Dm"FGF | "Gm"G2A "C7"BAG | "F"F2f "Bb"fed | "F"cAB "C7"cde \
|  "F"f2F "Dm"FGF | "Gm"G2A "C7"BAG | "F"cAB "C7"cde | "F"fA{B}c F3 :|
|: "F"f2c caf | "Gm"g2d "C7"d2e | "F"fag "Dm"fag | "C7"c'ba g3 \
|  "F"f2F "Dm"FGF | "Gm"G2A "Bb"Bcd | "F"cAa "C7"afg | "F"fA{B}c F3 :|
